build/svg/cmd/sc_mailmergeprintdocuments.svg

<svg xmlns="http://www.w3.org/2000/svg" viewBox="0 0 16 16">/&gt;<path d="M6 1c-1.108 0-2 .892-2 2v2H3c-1.108 0-2 .892-2 2v4c0 1.108.892 2 2 2h1c0 1.108.892 2 2 2h4c1.108 0 2-.892 2-2h1c1.108 0 2-.892 2-2V7c0-1.108-.892-2-2-2h-1V3c0-1.108-.892-2-2-2z" opacity=".6"/><path d="M6 2h4c.554 0 1 .446 1 1v2H5V3c0-.554.446-1 1-1z" fill="#fff"/><rect width="12" height="6" x="2" y="6" ry="1" fill="#b3b3b3"/><path fill="#666" d="M3 5h10v1H3z"/><rect width="8" height="3" x="4" y="9" ry="0" fill="#666"/><path d="M11 10v3c0 .554-.446 1-1 1H6c-.554 0-1-.446-1-1v-3z" fill="#fff"/><path style="line-height:normal;font-variant-ligatures:normal;font-variant-position:normal;font-variant-caps:normal;font-variant-numeric:normal;font-variant-alternates:normal;font-feature-settings:normal;text-indent:0;text-align:start;text-decoration-line:none;text-decoration-style:solid;text-decoration-color:#000;text-transform:none;text-orientation:mixed;white-space:normal;shape-padding:0;isolation:auto;mix-blend-mode:normal;marker:none" d="M6 12v1h4v-1z" color="#000" font-weight="400" font-family="sans-serif" overflow="visible" fill="#a7a7f1"/></svg>

<?xml version="1.0" encoding="UTF-8" standalone="no"?>
<svg
   xmlns:dc="http://purl.org/dc/elements/1.1/"
   xmlns:cc="http://creativecommons.org/ns#"
   xmlns:rdf="http://www.w3.org/1999/02/22-rdf-syntax-ns#"
   xmlns:svg="http://www.w3.org/2000/svg"
   xmlns="http://www.w3.org/2000/svg"
   xmlns:sodipodi="http://sodipodi.sourceforge.net/DTD/sodipodi-0.dtd"
   xmlns:inkscape="http://www.inkscape.org/namespaces/inkscape"
   viewBox="0 0 16 16"
   version="1.1"
   id="svg4"
   sodipodi:docname="sc_mailmergeprintdocuments.svg"
   inkscape:version="0.92.4 (5da689c313, 2019-01-14)"
   inkscape:export-filename="/home/jupiter007/Libreoffice yaru theme fullcolor/build/cmd/sc_mailmergeprintdocuments.png"
   inkscape:export-xdpi="95"
   inkscape:export-ydpi="95"><metadata
   id="metadata10">
  <rdf:RDF>
    <cc:Work
       rdf:about="">
      <dc:format>image/svg+xml</dc:format>
      <dc:type
         rdf:resource="http://purl.org/dc/dcmitype/StillImage" />
    </cc:Work>
  </rdf:RDF>
</metadata>
<defs
   id="defs8" />
<sodipodi:namedview
   pagecolor="#ffffff"
   bordercolor="#666666"
   borderopacity="1"
   objecttolerance="10"
   gridtolerance="10"
   guidetolerance="10"
   inkscape:pageopacity="0"
   inkscape:pageshadow="2"
   inkscape:window-width="1920"
   inkscape:window-height="1011"
   id="namedview6"
   showgrid="true"
   inkscape:zoom="32"
   inkscape:cx="3.8698242"
   inkscape:cy="5.8416701"
   inkscape:window-x="0"
   inkscape:window-y="32"
   inkscape:window-maximized="1"
   inkscape:current-layer="svg4">
  <inkscape:grid
     type="xygrid"
     id="grid840" />
</sodipodi:namedview>




/&gt;<path
   style="opacity:0.6;fill:#000000;fill-opacity:1;stroke:none;stroke-width:2;stroke-linecap:round;stroke-linejoin:round;stroke-miterlimit:4;stroke-dasharray:none;stroke-opacity:1"
   d="M 6,1 C 4.892,1 4,1.892 4,3 V 5 H 3 C 1.892,5 1,5.892 1,7 v 4 c 0,1.108 0.892,2 2,2 h 1 c 0,1.108 0.892,2 2,2 h 4 c 1.108,0 2,-0.892 2,-2 h 1 c 1.108,0 2,-0.892 2,-2 V 7 C 15,5.892 14.108,5 13,5 H 12 V 3 C 12,1.892 11.108,1 10,1 Z"
   id="rect824"
   inkscape:connector-curvature="0"
   sodipodi:nodetypes="sscsssscsscsssscsss" />
<path
   style="opacity:1;fill:#ffffff;fill-opacity:1;stroke:none;stroke-width:2;stroke-linecap:round;stroke-linejoin:round;stroke-miterlimit:4;stroke-dasharray:none;stroke-opacity:1"
   d="m 6,2 h 4 c 0.554,0 1,0.446 1,1 V 5 H 5 V 3 C 5,2.446 5.446,2 6,2 Z"
   id="rect826"
   inkscape:connector-curvature="0"
   sodipodi:nodetypes="sssccss" />
<rect
   style="opacity:1;fill:#b3b3b3;fill-opacity:1;stroke:none;stroke-width:2;stroke-linecap:round;stroke-linejoin:round;stroke-miterlimit:4;stroke-dasharray:none;stroke-opacity:1"
   id="rect829"
   width="12"
   height="6"
   x="2"
   y="6"
   ry="1" />
<rect
   y="5"
   x="3"
   height="1"
   width="10"
   id="rect831"
   style="opacity:1;vector-effect:none;fill:#666666;fill-opacity:1;stroke:none;stroke-width:2.23606777;stroke-linecap:round;stroke-linejoin:round;stroke-miterlimit:4;stroke-dasharray:none;stroke-dashoffset:0;stroke-opacity:1" />
<rect
   style="opacity:1;fill:#666666;fill-opacity:1;stroke:none;stroke-width:2;stroke-linecap:round;stroke-linejoin:round;stroke-miterlimit:4;stroke-dasharray:none;stroke-opacity:1"
   id="rect836"
   width="8"
   height="3"
   x="4"
   y="9"
   ry="0" />
<path
   style="opacity:1;fill:#ffffff;fill-opacity:1;stroke:none;stroke-width:2;stroke-linecap:round;stroke-linejoin:round;stroke-miterlimit:4;stroke-dasharray:none;stroke-opacity:1"
   d="m 11,10 v 3 c 0,0.554 -0.446,1 -1,1 H 6 C 5.446,14 5,13.554 5,13 v -3 z"
   id="rect838"
   inkscape:connector-curvature="0"
   sodipodi:nodetypes="csssscc" />
<path
   style="color:#000000;font-weight:400;line-height:normal;font-family:sans-serif;font-variant-ligatures:normal;font-variant-position:normal;font-variant-caps:normal;font-variant-numeric:normal;font-variant-alternates:normal;font-feature-settings:normal;text-indent:0;text-align:start;text-decoration:none;text-decoration-line:none;text-decoration-style:solid;text-decoration-color:#000000;text-transform:none;text-orientation:mixed;white-space:normal;shape-padding:0;overflow:visible;isolation:auto;mix-blend-mode:normal;fill:#a7a7f1;fill-opacity:1;stroke-width:1.41421366;marker:none"
   d="m 6,12 v 1 h 4 v -1 z"
   id="path2005"
   inkscape:connector-curvature="0"
   sodipodi:nodetypes="ccccc" />
</svg>
